styles/3/Numix/64/places/custom-user-desktop.svg

<?xml version="1.0" encoding="UTF-8" standalone="no"?>
<!-- Created with Inkscape (http://www.inkscape.org/) -->

<svg
   xmlns:dc="http://purl.org/dc/elements/1.1/"
   xmlns:cc="http://creativecommons.org/ns#"
   xmlns:rdf="http://www.w3.org/1999/02/22-rdf-syntax-ns#"
   xmlns:svg="http://www.w3.org/2000/svg"
   xmlns="http://www.w3.org/2000/svg"
   xmlns:sodipodi="http://sodipodi.sourceforge.net/DTD/sodipodi-0.dtd"
   xmlns:inkscape="http://www.inkscape.org/namespaces/inkscape"
   width="64"
   height="64"
   id="svg2"
   version="1.1"
   inkscape:version="0.91 r"
   sodipodi:docname="custom-user-desktop.svg"
   inkscape:export-filename="/media/Data/Main/Visuals/Icons/Numix/Desktop/repos/numix-wiki/Gjorgi/Numix-folders/48/New/folder-144.png"
   inkscape:export-xdpi="270"
   inkscape:export-ydpi="270">
  <defs
     id="defs4" />
  <sodipodi:namedview
     id="base"
     pagecolor="#ffffff"
     bordercolor="#666666"
     borderopacity="1.0"
     inkscape:pageopacity="0.0"
     inkscape:pageshadow="2"
     inkscape:zoom="11.299567"
     inkscape:cx="10.584076"
     inkscape:cy="27.488465"
     inkscape:document-units="px"
     inkscape:current-layer="layer1"
     showgrid="true"
     inkscape:window-width="1280"
     inkscape:window-height="998"
     inkscape:window-x="0"
     inkscape:window-y="0"
     inkscape:window-maximized="1"
     showguides="true"
     inkscape:guide-bbox="true">
    <inkscape:grid
       type="xygrid"
       id="grid2985"
       empspacing="5"
       visible="true"
       enabled="true"
       snapvisiblegridlinesonly="true" />
  </sodipodi:namedview>
  <metadata
     id="metadata7">
    <rdf:RDF>
      <cc:Work
         rdf:about="">
        <dc:format>image/svg+xml</dc:format>
        <dc:type
           rdf:resource="http://purl.org/dc/dcmitype/StillImage" />
        <dc:title />
      </cc:Work>
    </rdf:RDF>
  </metadata>
  <g
     inkscape:label="Layer 1"
     inkscape:groupmode="layer"
     id="layer1"
     transform="translate(0,-988.3622)">
    <rect
       style="fill:replacecolour2;fill-opacity:1;stroke:none"
       id="rect3757"
       width="52"
       height="20"
       x="6"
       y="1000.3622" />
    <path
       style="fill:replacecolour2;fill-opacity:1;stroke:none"
       d="m 12,1000.3622 c 0,-2 0,-4 2.909091,-4 l 10.181819,0 c 2.90909,0 2.90909,2 2.90909,4 l 0,2 -16,0 z"
       id="path3759"
       inkscape:connector-curvature="0"
       sodipodi:nodetypes="ccccccc" />
    <path
       style="fill:#95989f;fill-opacity:1;stroke:none"
       d="m 10,1004.3622 44,0 0,9.9354 -44,0 z"
       id="path3765"
       inkscape:connector-curvature="0" />
    <rect
       y="1002.3622"
       x="14"
       height="25.999954"
       width="38"
       id="rect3763"
       style="fill:#d8d8da;fill-opacity:1;stroke:none" />
    <rect
       style="fill:#f9f9f9;fill-opacity:1;stroke:none"
       id="rect3761"
       width="38"
       height="25.999954"
       x="12"
       y="1006.3622" />
    <path
       style="fill:replacecolour1;fill-opacity:1;stroke:none"
       d="m 2,1008.3622 60,0 -4.285714,36 -51.428572,0 z"
       id="path2987"
       inkscape:connector-curvature="0"
       sodipodi:nodetypes="ccccc" />
    <path
       style="opacity:1.0;fill:replacecolour3;fill-opacity:1"
       d="M 22 24 C 19.784 24 18 25.784 18 28 L 18 42 C 18 44.216 19.784 46 22 46 L 28 46 L 24 50 C 22 52 22 52 24 52 L 40 52 C 42 52 42 52 40 50 L 36 46 L 42 46 C 44.216 46 46 44.216 46 42 L 46 28 C 46 25.784 44.216 24 42 24 L 22 24 z M 22 28 L 42 28 L 42 42 L 22 42 L 22 28 z M 27 30 C 27 30 24.999867 30 25 32 L 25 38 C 25.000133 40 27 40 27 40 L 33 40 C 35 40 35 38 35 38 L 35 34 L 31 30 L 27 30 z M 27 32 L 30 32 L 30 35 L 33 35 L 33 38 L 27 38 L 27 32 z "
       transform="translate(0,988.3622)"
       id="path8" />
  </g>
</svg>

<!-- Created with Inkscape (http://www.inkscape.org/) -->
<svg xmlns="http://www.w3.org/2000/svg" viewBox="0 0 64 64">
 <g transform="translate(0,-988.3622)">
  <rect width="52" height="20" x="6" y="1000.36" style="fill:replacecolour2;fill-opacity:1;stroke:none"/>
  <path d="m 12 1000.36 c 0 -2 0 -4 2.909 -4 l 10.182 0 c 2.909 0 2.909 2 2.909 4 l 0 2 -16 0 z" style="fill:replacecolour2;fill-opacity:1;stroke:none"/>
  <path d="m 10 1004.36 44 0 0 9.935 -44 0 z" style="fill:#95989f;fill-opacity:1;stroke:none"/>
  <rect y="1002.36" x="14" height="26" width="38" style="fill:#d8d8da;fill-opacity:1;stroke:none"/>
  <rect width="38" height="26" x="12" y="1006.36" style="fill:#f9f9f9;fill-opacity:1;stroke:none"/>
  <path d="m 2 1008.36 60 0 -4.286 36 -51.43 0 z" style="fill:replacecolour1;fill-opacity:1;stroke:none"/>
  <path d="m 22 24 c -2.216 0 -4 1.784 -4 4 l 0 14 c 0 2.216 1.784 4 4 4 l 6 0 l -4 4 c -2 2 -2 2 0 2 l 16 0 c 2 0 2 0 0 -2 l -4 -4 l 6 0 c 2.216 0 4 -1.784 4 -4 l 0 -14 c 0 -2.216 -1.784 -4 -4 -4 l -20 0 z m 0 4 l 20 0 l 0 14 l -20 0 l 0 -14 z m 5 2 c 0 0 -2 0 -2 2 l 0 6 c 0 2 2 2 2 2 l 6 0 c 2 0 2 -2 2 -2 l 0 -4 l -4 -4 l -4 0 z m 0 2 l 3 0 l 0 3 l 3 0 l 0 3 l -6 0 l 0 -6 z" transform="translate(0,988.3622)" style="fill:replacecolour3;opacity:1;fill-opacity:1"/>
 </g>
</svg>
